!!!OTL: Al ausentarme de ti
**kern
!!pagebreak:original
*clefG2
*k[f#]
*G:
*M6/8
!LO:TX:t=[quarter]=120
16bbLL
16bb
16bb
16bbJJ
=1
16gggLL
16gg
16gg
16gg
16fff#
16ggJJ
16ggLL
16gg
16ccc
16gg
16gg
16ggJJ
=2
4.aa#X
16r
16ddd#XLL
16eee
16ddd#
16eee
16fffnJJ
=3
8fff#L
8ddd#X
8bbJ
4ggg
8ddd#
!!linebreak:original
=4
8fff#L
16eeeL
16ddd#XJ
(8eeeJ
4eee)
8ccc#X
=5
8dddL
8ccc
8aaJ
8ff#L
8.aa
16ddd#XJk
=6
8eeeL
8ddd
8bbJ
8ggL
8.bb
16aa#XJk
=7
8bbL
8aa
8ff#J
8cc#XL
8ccc
8aa#XJ
=8
4.bb
8r
16bbLL
16bb
16bb
16bbJJ
!!linebreak:original
=9
16gggLL
16gg
16gg
16gg
16fff#
16ggJJ
16ggLL
16gg
16ccc
16gg
16gg
16ggJJ
=10
4.aa#X
16r
16ddd#XLL
16eee
16ddd#
16eee
16fffnJJ
=11
16fff#LL
16ddd#X
16ccc
16ddd#
16ccc
16aaJJ
16bbLL
16gg
16ff#
16aa
16ff#
16dd#XJJ
=12
4.ee
8r
16cccLL
16bb
16aa
16cccJJ
!!linebreak:original
=13
4.bb
8r
16fff#LL
16eee
16ddd#X
16fff#JJ
=14
4.eee
8r
8eL
8f#J
=15!|:
4g
8f#
4g
8g#X
=16
4.a
8r
8f#L
8g#XJ
=17
4a
8g#X
4a
8a#X
!!linebreak:original
=18
4b
(8b
8bL)
8a
8bJ
=19
4cc
8b
4cc
8a
=20
4b
4b
8f#L
8g#XJ
=21
4a
8f#
4b
8a
=22
4.g
8r
8f#L
8gJ
!!linebreak:original
=23
4cc
8b
4cc
8a
=24
4dd
4dd
8f#L
8g#XJ
=25
4a
8f#
4b
8a
=26
4.g
!LO:TX:a:B:t=Fine
8r
8f#L
8gJ
=27:|!
(4.g
8gL)
8b
8bJ
!!linebreak:original
=28
4b
4b
8aL
8g#XJ
=29
(4a
4a)
8f#L
8gJ
=30
8aL
8a
8aJ
4b
8a
=31
(4b
4b)
8aL
8bJ
=32
4cc
8b
4cc
8a
!!linebreak:original
=33
4b
(8b
8bL)
8f#
8b#XJ
=34
4a
8g#X
4b
8a
=35
(4.g
8gL)
8b
8bJ
=36
4cc
8dd
4ee
8cc
=37
4b
(8b
8bL)
8a
8b#XJ
!!pagebreak:original
=38
4a
8g#X
4b
8a
=39
(4.g
8gL)
8e
!LO:TX:a:B:t=D.S. al Fine
8f#J
==
*-